nuxtjs.org/static/img/home/discover/dx/file-system-routing.svg

<svg width="75" height="75" fill="none" xmlns="http://www.w3.org/2000/svg"><mask id="a" maskUnits="userSpaceOnUse" x="0" y="4" width="75" height="69"><path d="M1.91487 45.6651L13.497 65.8046v-.0247c1.2621 2.1807 3.0726 3.9914 5.2508 5.2516 2.1782 1.2601 4.6479 1.9257 7.1627 1.9302h23.179c2.5149-.004 4.9848-.6694 7.1631-1.9296s3.9887-3.0712 5.2505-5.2522l11.582-20.1148C74.3397 43.4796 75 41.0023 75 38.4808c0-2.5215-.6603-4.9988-1.9149-7.1842l-11.582-20.1148c-1.2631-2.18321-3.0758-3.99561-5.2569-5.25595C54.0651 4.6655 51.5922 4.00141 49.0747 4H25.9105c-2.5148.0045-4.9845.67002-7.1627 1.93019-2.1782 1.26016-3.9887 3.07091-5.2508 5.25161L1.91487 31.2966C.660299 33.482 0 35.9593 0 38.4808c0 2.5215.660299 4.9988 1.91487 7.1843z" fill="#00DC82"/></mask><g mask="url(#a)"><path d="M1.91487 45.6651L13.497 65.8046v-.0247c1.2621 2.1807 3.0726 3.9914 5.2508 5.2516 2.1782 1.2601 4.6479 1.9257 7.1627 1.9302h23.179c2.5149-.004 4.9848-.6694 7.1631-1.9296s3.9887-3.0712 5.2505-5.2522l11.582-20.1148C74.3397 43.4796 75 41.0023 75 38.4808c0-2.5215-.6603-4.9988-1.9149-7.1842l-11.582-20.1148c-1.2631-2.18321-3.0758-3.99561-5.2569-5.25595C54.0651 4.6655 51.5922 4.00141 49.0747 4H25.9105c-2.5148.0045-4.9845.67002-7.1627 1.93019-2.1782 1.26016-3.9887 3.07091-5.2508 5.25161L1.91487 31.2966C.660299 33.482 0 35.9593 0 38.4808c0 2.5215.660299 4.9988 1.91487 7.1843z" fill="#00DC82"/><path opacity=".3" d="M-8.08513 45.6668L3.49695 65.8063v-.0247c1.26216 2.1807 3.07265 3.9914 5.25083 5.2516 2.17822 1.2601 4.64792 1.9257 7.16272 1.9302h23.179c2.5149-.004 4.9848-.6694 7.1631-1.9296s3.9887-3.0712 5.2505-5.2522l11.582-20.1148C64.3397 43.4813 65 41.004 65 38.4825c0-2.5215-.6603-4.9988-1.9149-7.1842l-11.582-20.1148c-1.2631-2.1832-3.0758-3.9956-5.2569-5.25594-2.1811-1.26035-4.654-1.92444-7.1715-1.92585H15.9105c-2.5148.00449-4.9845.67002-7.16272 1.93019-2.17818 1.26016-3.98867 3.07091-5.25083 5.2516L-8.08513 31.2983C-9.3397 33.4837-10 35.961-10 38.4825c0 2.5215.6603 4.9988 1.91487 7.1843z" fill="#fff"/></g><path d="M35.6319 38.6312c-.7561.7561-.7561 1.9815 0 2.7369.7554.7561 1.9814.7561 2.7368 0 .7561-.756.7561-1.9814 0-2.7369-.756-.7554-1.9814-.7554-2.7368 0zM37 25c-8.2845 0-15 6.7155-15 15 0 8.2845 6.7155 15 15 15 8.2845 0 15-6.7155 15-15 0-8.2845-6.7155-15-15-15zm7.6294 8.9546l-3.9901 8.7309c-.193.4222-.5316.7608-.9538.9538l-8.7303 3.9901c-1.007.4603-2.0449-.5776-1.5846-1.5846l3.9907-8.7309c.193-.4222.5316-.7608.9538-.9538l8.7303-3.9901c1.007-.4597 2.0443.5776 1.584 1.5846z" fill="#B9FFE2"/></svg>

<svg width="75" height="75" viewBox="0 0 75 75" fill="none" xmlns="http://www.w3.org/2000/svg">
<mask id="mask0" mask-type="alpha" maskUnits="userSpaceOnUse" x="0" y="4" width="75" height="69">
<path d="M1.91487 45.6651L13.497 65.8046V65.7799C14.7591 67.9606 16.5696 69.7713 18.7478 71.0315C20.926 72.2916 23.3957 72.9572 25.9105 72.9617H49.0895C51.6044 72.9577 54.0743 72.2923 56.2526 71.0321C58.4309 69.7719 60.2413 67.9609 61.5031 65.7799L73.0851 45.6651C74.3397 43.4796 75 41.0023 75 38.4808C75 35.9593 74.3397 33.482 73.0851 31.2966L61.5031 11.1818C60.24 8.99859 58.4273 7.18619 56.2462 5.92585C54.0651 4.6655 51.5922 4.00141 49.0747 4H25.9105C23.3957 4.0045 20.926 4.67002 18.7478 5.93019C16.5696 7.19035 14.7591 9.0011 13.497 11.1818L1.91487 31.2966C0.660299 33.482 0 35.9593 0 38.4808C0 41.0023 0.660299 43.4796 1.91487 45.6651Z" fill="#00DC82"/>
</mask>
<g mask="url(#mask0)">
<path d="M1.91487 45.6651L13.497 65.8046V65.7799C14.7591 67.9606 16.5696 69.7713 18.7478 71.0315C20.926 72.2916 23.3957 72.9572 25.9105 72.9617H49.0895C51.6044 72.9577 54.0743 72.2923 56.2526 71.0321C58.4309 69.7719 60.2413 67.9609 61.5031 65.7799L73.0851 45.6651C74.3397 43.4796 75 41.0023 75 38.4808C75 35.9593 74.3397 33.482 73.0851 31.2966L61.5031 11.1818C60.24 8.99859 58.4273 7.18619 56.2462 5.92585C54.0651 4.6655 51.5922 4.00141 49.0747 4H25.9105C23.3957 4.0045 20.926 4.67002 18.7478 5.93019C16.5696 7.19035 14.7591 9.0011 13.497 11.1818L1.91487 31.2966C0.660299 33.482 0 35.9593 0 38.4808C0 41.0023 0.660299 43.4796 1.91487 45.6651Z" fill="#00DC82"/>
<path opacity="0.3" d="M-8.08513 45.6668L3.49695 65.8063V65.7816C4.75911 67.9623 6.5696 69.773 8.74778 71.0332C10.926 72.2933 13.3957 72.9589 15.9105 72.9634H39.0895C41.6044 72.9594 44.0743 72.294 46.2526 71.0338C48.4309 69.7736 50.2413 67.9626 51.5031 65.7816L63.0851 45.6668C64.3397 43.4813 65 41.004 65 38.4825C65 35.961 64.3397 33.4837 63.0851 31.2983L51.5031 11.1835C50.24 9.0003 48.4273 7.1879 46.2462 5.92756C44.0651 4.66721 41.5922 4.00312 39.0747 4.00171H15.9105C13.3957 4.0062 10.926 4.67173 8.74778 5.9319C6.5696 7.19206 4.75911 9.00281 3.49695 11.1835L-8.08513 31.2983C-9.3397 33.4837 -10 35.961 -10 38.4825C-10 41.004 -9.3397 43.4813 -8.08513 45.6668Z" fill="white"/>
</g>
<path d="M35.6319 38.6312C34.8758 39.3873 34.8758 40.6127 35.6319 41.3681C36.3873 42.1242 37.6133 42.1242 38.3687 41.3681C39.1248 40.6121 39.1248 39.3867 38.3687 38.6312C37.6127 37.8758 36.3873 37.8758 35.6319 38.6312ZM37 25C28.7155 25 22 31.7155 22 40C22 48.2845 28.7155 55 37 55C45.2845 55 52 48.2845 52 40C52 31.7155 45.2845 25 37 25ZM44.6294 33.9546L40.6393 42.6855C40.4463 43.1077 40.1077 43.4463 39.6855 43.6393L30.9552 47.6294C29.9482 48.0897 28.9103 47.0518 29.3706 46.0448L33.3613 37.3139C33.5543 36.8917 33.8929 36.5531 34.3151 36.3601L43.0454 32.37C44.0524 31.9103 45.0897 32.9476 44.6294 33.9546V33.9546Z" fill="#A8FFE8"/>
</svg>
